dist/svg/domain.svg

<!-- Generated by Trend Micro Style Portal -->
<svg version="1.1" xmlns="http://www.w3.org/2000/svg" width="16" height="16" viewBox="0 0 16 16">
  <title>domain</title>
  <path fill="rgb(34,34,34)" d="M15.25 12h-0.25v-5h-6v-2h1.25c0.414-0.002 0.748-0.336 0.75-0.75v-3.5c-0.001-0.414-0.336-0.749-0.75-0.75h-4.5c-0.414 0.001-0.749 0.336-0.75 0.75v3.5c0.002 0.414 0.336 0.748 0.75 0.75h1.25v2h-6v5h-0.25c-0.414 0.002-0.748 0.336-0.75 0.75v2.5c0.002 0.414 0.336 0.748 0.75 0.75h2.5c0.414-0.001 0.749-0.336 0.75-0.75v-2.5c-0.001-0.414-0.336-0.749-0.75-0.75h-0.25v-3h4v3h-0.25c-0.414 0.002-0.748 0.336-0.75 0.75v2.5c0.002 0.414 0.336 0.748 0.75 0.75h2.5c0.414-0.002 0.748-0.336 0.75-0.75v-2.5c-0.002-0.414-0.336-0.748-0.75-0.75h-0.25v-3h4v3h-0.25c-0.414 0.002-0.748 0.336-0.75 0.75v2.5c0.002 0.414 0.336 0.748 0.75 0.75h2.5c0.414-0.002 0.748-0.336 0.75-0.75v-2.5c-0.002-0.414-0.336-0.748-0.75-0.75h-0zM3 15h-2v-2h2zM9 15h-2v-2h2zM15 15h-2v-2h2z"></path>
</svg>

<svg width="16" height="16" viewBox="0 0 16 16" fill="rgb(34, 34, 34)" xmlns="http://www.w3.org/2000/svg"><title>domain</title><path d="M15.25 12H15V7H9V5H10.25C10.664 4.998 10.998 4.664 11 4.25V0.75C10.999 0.336 10.664 0.001 10.25 0H5.75C5.336 0.001 5.001 0.336 5 0.75V4.25C5.002 4.664 5.336 4.998 5.75 5H7V7H1V12H0.75C0.336 12.002 0.002 12.336 0 12.75V15.25C0.002 15.664 0.336 15.998 0.75 16H3.25C3.664 15.999 3.999 15.664 4 15.25V12.75C3.999 12.336 3.664 12.001 3.25 12H3V9H7V12H6.75C6.336 12.002 6.002 12.336 6 12.75V15.25C6.002 15.664 6.336 15.998 6.75 16H9.25C9.664 15.998 9.998 15.664 10 15.25V12.75C9.998 12.336 9.664 12.002 9.25 12H9V9H13V12H12.75C12.336 12.002 12.002 12.336 12 12.75V15.25C12.002 15.664 12.336 15.998 12.75 16H15.25C15.664 15.998 15.998 15.664 16 15.25V12.75C15.998 12.336 15.664 12.002 15.25 12ZM3 15H1V13H3V15ZM9 15H7V13H9V15ZM15 15H13V13H15V15Z" fill="rgb(34, 34, 34)" fill-opacity="1.00"/></svg>
